svg_80x80/qt.svg

<svg viewBox="0 0 80 80" xmlns="http://www.w3.org/2000/svg">
<rect width="100%" height="100%" fill="white"/>
<path d="M14.625 14.2988H75V55.9313C71.7567 59.1863 68.5046 62.4296 65.2437 65.6613H5V23.9063C8.19375 20.73 11.4137 17.5013 14.625 14.2988Z" fill="#41CD52"/>
<path fill-rule="evenodd" clip-rule="evenodd" d="M31.364 23.2323C28.6284 23.0691 25.9062 23.7206 23.5417 25.1047C21.6838 26.497 20.3557 28.4818 19.7795 30.731C18.9628 33.6268 18.5991 36.6315 18.7028 39.6384C18.6662 42.4215 19.0617 45.1932 19.8759 47.8547C20.1811 48.8579 20.6486 49.8005 21.2541 50.6469C21.6044 51.1359 22.0012 51.5929 22.4394 52.011C24.1484 53.3663 26.2236 54.1827 28.3977 54.356C29.3254 54.4698 30.2605 54.5173 31.1931 54.4985C32.0549 54.4813 32.9155 54.4074 33.77 54.2773L37.6909 60.7522L42.2929 58.6347C41.0771 56.6485 39.8259 54.6885 38.6088 52.7109C40.3117 51.4791 41.5898 49.7484 42.2673 47.7585C43.1499 44.8215 43.5368 41.7579 43.4135 38.6935C43.4575 35.6484 42.9692 32.6191 41.9694 29.7422C41.3652 27.9572 40.2446 26.3918 38.7492 25.2448C36.552 23.8338 33.9738 23.1313 31.364 23.2323ZM33.9885 28.0273C32.4943 27.485 30.8855 27.3342 29.3169 27.5898C28.0742 27.7137 26.9072 28.2461 26.0002 29.1036C25.0773 30.1969 24.456 31.5118 24.1972 32.9186C23.4611 36.5751 23.4379 40.3393 24.1276 44.0049C24.301 45.169 24.6367 46.303 25.125 47.3736C25.5571 48.2661 26.2578 49.0006 27.1294 49.4736C28.6394 50.1726 30.3142 50.4392 31.9682 50.2436C33.5612 50.2056 35.0761 49.5425 36.1857 48.3973C37.1245 47.1177 37.6945 45.604 37.83 44.0223C38.1596 41.4545 38.2268 38.8599 38.0315 36.2786C37.9375 34.3243 37.4992 32.4018 36.7363 30.5999C36.1845 29.4219 35.2006 28.5009 33.9885 28.0273Z" fill="white"/>
<path d="M54.3852 25.0085H49.5647V31.3785H46.2041V35.5172H49.5378V45.8248C49.4585 47.7451 49.7563 49.6624 50.413 51.4686C50.6438 51.9717 50.9843 52.4166 51.4104 52.7709C51.6704 52.9873 51.9572 53.1666 52.2636 53.3044C52.4589 53.3921 52.6628 53.463 52.8715 53.516C55.247 54.2719 57.7421 53.8526 60.1445 53.449L60.5278 53.3848L60.4045 51.2557L60.3007 49.5785C59.7978 49.589 59.2937 49.6078 58.7883 49.6267C58.029 49.6551 57.2685 49.6834 56.5117 49.6834C56.1601 49.7152 55.8061 49.6505 55.4887 49.4964C55.1713 49.3421 54.9016 49.1044 54.7087 48.8085C54.3718 47.9002 54.2229 46.9326 54.2717 45.9647V35.5172H60.3972C60.4399 34.1347 60.5107 32.761 60.5107 31.3785H54.3852V25.0085Z" fill="white"/>
</svg>

<svg xmlns="http://www.w3.org/2000/svg" viewBox="0 0 80 80">
  <rect width="100%" height="100%" fill="#fff"/>
  <path fill="#41CD52" d="M14.625 14.299H75V55.93a2187.861 2187.861 0 0 1-9.756 9.73H5V23.906c3.194-3.176 6.414-6.405 9.625-9.607Z"/>
  <path fill="#fff" fill-rule="evenodd" d="M31.364 23.232a13.851 13.851 0 0 0-7.822 1.873 10.193 10.193 0 0 0-3.763 5.626 29.118 29.118 0 0 0-1.076 8.907 26.877 26.877 0 0 0 1.173 8.217 9.606 9.606 0 0 0 2.563 4.156 10.998 10.998 0 0 0 5.959 2.345 19.708 19.708 0 0 0 5.372-.079l3.92 6.475 4.603-2.117c-1.216-1.986-2.467-3.947-3.684-5.924a10.149 10.149 0 0 0 3.658-4.953c.883-2.937 1.27-6 1.146-9.065a26.118 26.118 0 0 0-1.444-8.95 9.51 9.51 0 0 0-3.22-4.498 12.755 12.755 0 0 0-7.385-2.013Zm2.625 4.795a9.308 9.308 0 0 0-4.672-.437A5.643 5.643 0 0 0 26 29.104a8.22 8.22 0 0 0-1.803 3.815 29.002 29.002 0 0 0-.07 11.086c.174 1.164.51 2.298.998 3.369a4.738 4.738 0 0 0 2.004 2.1 9.001 9.001 0 0 0 4.84.77 6.075 6.075 0 0 0 4.217-1.847 8.645 8.645 0 0 0 1.644-4.375c.33-2.567.397-5.162.202-7.743a16.612 16.612 0 0 0-1.296-5.68 5.073 5.073 0 0 0-2.747-2.572Z" clip-rule="evenodd"/>
  <path fill="#fff" d="M54.385 25.009h-4.82v6.37h-3.36v4.138h3.333v10.308c-.08 1.92.218 3.837.875 5.644a3.7 3.7 0 0 0 2.459 2.047c2.375.756 4.87.337 7.273-.067l.383-.064-.123-2.13-.104-1.677c-.503.011-1.007.03-1.513.049-.759.028-1.52.056-2.276.056a1.943 1.943 0 0 1-1.803-.874 7.144 7.144 0 0 1-.437-2.844V35.517h6.125c.043-1.382.114-2.756.114-4.139h-6.126v-6.37Z"/>
</svg>
